X:1442
T:Around The World For Sport
M:C|
L:1/8
N:"collected by McFadden"
B:O'Neill's 1442
Z:"Transcribed by Bob Safranek, rjs@gsp.org"
K:G
GFGB  A2 dc|BdAc    BEEF|TGFGB      A2 dc|BGAG      FDEF|
TGFGB A2  dc|3Bcd Ac BEEF|G2 AGF GABc|dBAG     FD "   Fine"D||
f|gfef  g2 ef|geag    fddf|gfef       gfed|BdAG      FDDf|
gfef  g2 bg|fgag    fddf|gbaf       gfed|3Bcd AG FDE"D.C."F|]
